;FLAVOR:Marlin
;TIME:5495
;Filament used: 7.23563m
;Layer height: 0.3
;MINX:55.26
;MINY:22.248
;MINZ:0.3
;MAXX:124.036
;MAXY:119.616
;MAXZ:56.1
;Generated with Cura_SteamEngine main
M140 S60
M105
M190 S60
M104 S200
M105
M109 S200
M82 ;absolute extrusion mode
G21 ;metric values
G90 ;absolute positioning
M82 ;set extruder to absolute mode
M107 ;start with the fan off
G28 X0 Y0 ;move X/Y to min endstops
G28 Z0 ;move Z to min endstops
G1 Z15.0 F100 ;move the platform down 15mm
G92 E0 ;zero the extruded length
G1 F200 E3 ;extrude 3mm of feed stock
G92 E0 ;zero the extruded length again
G1 F100
G0 Y20 F100
M117 Printing...
G5
G92 E0
G92 E0
G1 F2400 E-6
;LAYER_COUNT:187
;LAYER:0
M107
M204 S3000
M205 X10 Y10
G1 F600 Z0.375
G0 F3000 X60.399 Y25.991 Z0.375
G1 F600 Z0.3
G0 F3000 X59.445 Y31.633
M204 S1800
M205 X8 Y8
;TYPE:SKIRT
G1 F2400 E0
G1 X59.739 Y29.03 E0.18297
G1 X59.836 Y28.053 E0.25154
G1 X59.946 Y27.346 E0.30152
G1 X60.135 Y26.656 E0.35149
G1 X60.399 Y25.991 E0.40146
G1 X60.735 Y25.36 E0.45139
G1 X61.14 Y24.77 E0.50138
G1 X61.608 Y24.23 E0.55129
G1 X62.134 Y23.745 E0.60126
G1 X62.711 Y23.321 E0.65127
G1 X63.331 Y22.965 E0.70121
G1 X63.987 Y22.68 E0.75116
G1 X64.67 Y22.47 E0.80107
G1 X65.373 Y22.337 E0.85105
G1 X66.025 Y22.286 E0.89673
G1 X66.526 Y22.274 E0.93173
G1 X73.36 Y22.275 E1.40906
G1 X77.106 Y22.255 E1.67071
G1 X80.323 Y22.248 E1.8954
G1 X81.11 Y22.259 E1.95038
G1 X81.824 Y22.309 E2.00037
G1 X82.527 Y22.439 E2.0503
G1 X83.212 Y22.646 E2.10028
G1 X83.941 Y22.958 E2.15567
G1 X86.092 Y24.076 E2.32499
G1 X88.482 Y25.233 E2.51046
G1 X90.864 Y26.304 E2.69287
G1 X93.344 Y27.336 E2.88049
G1 X95.819 Y28.283 E3.06558
G1 X98.276 Y29.146 E3.24747
G1 X100.825 Y29.962 E3.43441
G1 X103.37 Y30.696 E3.61942
G1 X105.919 Y31.355 E3.80331
G1 X108.484 Y31.941 E3.98708
G1 X111.124 Y32.465 E4.17507
G1 X111.825 Y32.584 E4.22473
G1 X112.778 Y32.761 E4.29243
G1 X113.473 Y32.93 E4.34239
G1 X114.144 Y33.177 E4.39233
G1 X114.784 Y33.496 E4.44228
G1 X115.384 Y33.885 E4.49223
G1 X115.937 Y34.339 E4.5422
G1 X116.436 Y34.851 E4.59214
G1 X116.875 Y35.416 E4.64211
G1 X117.248 Y36.026 E4.69205
G1 X117.551 Y36.674 E4.74202
G1 X117.779 Y37.352 E4.79198
G1 X117.93 Y38.051 E4.84193
G1 X118.006 Y38.874 E4.89965
G1 X118.018 Y39.374 E4.93459
G1 X118.018 Y43.93 E5.25281
G1 X118.056 Y46.572 E5.43736
G1 X118.168 Y49.212 E5.62192
G1 X118.355 Y51.857 E5.80712
G1 X118.619 Y54.514 E5.99362
G1 X118.953 Y57.129 E6.17775
G1 X119.361 Y59.725 E6.3613
G1 X119.846 Y62.332 E6.54651
G1 X120.407 Y64.94 E6.73284
G1 X121.024 Y67.461 E6.91412
G1 X121.736 Y70.048 E7.10153
G1 X122.518 Y72.601 E7.28802
G1 X123.454 Y75.37 E7.49218
G1 X123.666 Y76.163 E7.54951
G1 X123.856 Y77.112 E7.61711
G1 X123.953 Y77.774 E7.66384
G1 X124.036 Y78.83 E7.73783
G1 X124.019 Y79.983 E7.81837
G1 X123.963 Y80.743 E7.8716
G1 X123.878 Y81.373 E7.916
G1 X123.77 Y81.96 E7.95769
G1 X123.54 Y82.953 E8.02888
G1 X123.345 Y83.6 E8.07608
G1 X122.735 Y85.453 E8.21234
G1 X121.959 Y88.04 E8.40098
G1 X121.288 Y90.537 E8.58158
G1 X120.664 Y93.146 E8.76894
G1 X120.121 Y95.746 E8.95446
G1 X119.654 Y98.341 E9.13863
G1 X119.14 Y101.817 E9.38405
G1 X118.9 Y102.896 E9.46126
G1 X118.774 Y103.391 E9.49693
G1 X118.426 Y104.4 E9.57148
G1 X118.22 Y104.866 E9.60707
G1 X117.969 Y105.4 E9.64828
G1 X117.601 Y106.07 E9.70167
G1 X116.96 Y107.081 E9.78528
G1 X116.391 Y107.824 E9.85065
G1 X115.631 Y108.605 E9.92677
G1 X115.235 Y108.991 E9.96539
G1 X114.716 Y109.445 E10.01355
G1 X114.239 Y109.81 E10.0555
G1 X113.738 Y110.166 E10.09843
G1 X113.028 Y110.623 E10.15741
G1 X112.212 Y111.035 E10.22126
G1 X111.549 Y111.326 E10.27183
G1 X110.785 Y111.63 E10.32926
G1 X108.372 Y112.481 E10.50797
G1 X105.914 Y113.424 E10.69186
G1 X103.474 Y114.44 E10.87646
G1 X101.041 Y115.536 E11.06285
G1 X98.665 Y116.688 E11.24728
G1 X96.285 Y117.926 E11.43466
G1 X95.005 Y118.627 E11.53659
G1 X94.359 Y118.935 E11.58658
G1 X93.714 Y119.161 E11.63431
G1 X93.224 Y119.297 E11.66983
G1 X92.714 Y119.422 E11.70651
G1 X92.01 Y119.553 E11.75652
G1 X91.283 Y119.605 E11.80743
G1 X90.502 Y119.616 E11.86199
G1 X88.106 Y119.615 E12.02934
G1 X87.402 Y119.605 E12.07852
G1 X86.689 Y119.555 E12.12844
G1 X85.985 Y119.426 E12.17843
G1 X85.301 Y119.219 E12.22834
G1 X84.773 Y118.999 E12.2683
G1 X83.991 Y118.631 E12.32866
G1 X82.852 Y118.078 E12.4171
G1 X80.422 Y116.982 E12.60329
G1 X77.944 Y115.948 E12.79083
G1 X75.492 Y115.004 E12.97435
G1 X73.022 Y114.134 E13.15726
G1 X71.532 Y113.666 E13.26634
G1 X71.283 Y113.572 E13.28493
G1 X70.219 Y113.231 E13.36297
G1 X69.551 Y112.975 E13.41294
G1 X68.803 Y112.596 E13.47151
G1 X68.031 Y112.101 E13.53556
G1 X67.476 Y111.651 E13.58546
G1 X66.974 Y111.141 E13.63545
G1 X66.361 Y110.345 E13.70562
G1 X65.892 Y109.555 E13.76979
G1 X65.54 Y108.778 E13.82937
G1 X65.006 Y107.007 E13.95857
G1 X64.193 Y104.465 E14.14498
G1 X63.321 Y101.98 E14.32892
G1 X62.372 Y99.506 E14.514
G1 X61.356 Y97.064 E14.69874
G1 X60.275 Y94.659 E14.88291
G1 X59.106 Y92.244 E15.07031
G1 X57.886 Y89.897 E15.25506
G1 X56.609 Y87.597 E15.43881
G1 X56.137 Y86.785 E15.50441
G1 X55.813 Y86.147 E15.55439
G1 X55.562 Y85.477 E15.60436
G1 X55.388 Y84.784 E15.65427
G1 X55.276 Y83.802 E15.7233
G1 X55.26 Y83.239 E15.76264
G1 X55.261 Y51.414 E17.9855
G1 X55.273 Y50.705 E18.03503
G1 X55.325 Y49.991 E18.08503
G1 X55.472 Y49.201 E18.14115
G1 X55.858 Y47.938 E18.2334
G1 X56.102 Y47.176 E18.28928
G1 X56.849 Y44.604 E18.47635
G1 X57.52 Y42.016 E18.66309
G1 X58.102 Y39.484 E18.84455
G1 X58.628 Y36.854 E19.03189
G1 X59.074 Y34.239 E19.21717
G1 X59.445 Y31.633 E19.40103
M204 S3000
M205 X10 Y10
G1 F2400 E13.40103
G0 F3000 X59.18 Y36.947
M204 S1800
M205 X8 Y8
G1 F2400 E19.40103
G1 X59.625 Y34.338 E19.58589
G1 X60 Y31.705 E19.77165
G1 X60.297 Y29.078 E19.9563
G1 X60.393 Y28.108 E20.02438
G1 X60.5 Y27.433 E20.07212
G1 X60.685 Y26.775 E20.11986
G1 X60.946 Y26.144 E20.16755
G1 X61.279 Y25.547 E20.2153
G1 X61.679 Y24.993 E20.26303
G1 X62.14 Y24.49 E20.31068
G1 X62.658 Y24.044 E20.35843
G1 X63.224 Y23.661 E20.40616
G1 X63.831 Y23.347 E20.45389
G1 X64.471 Y23.107 E20.50164
G1 X65.134 Y22.942 E20.54936
G1 X66.144 Y22.834 E20.6203
G1 X73.363 Y22.835 E21.12452
G1 X77.107 Y22.815 E21.38603
G1 X80.324 Y22.808 E21.61073
G1 X81.102 Y22.819 E21.66507
G1 X81.783 Y22.869 E21.71277
G1 X82.454 Y22.998 E21.76049
G1 X83.105 Y23.205 E21.8082
G1 X83.691 Y23.46 E21.85284
G1 X85.855 Y24.583 E22.02313
G1 X88.231 Y25.734 E22.20753
G1 X90.64 Y26.817 E22.39201
G1 X93.137 Y27.856 E22.58091
G1 X95.622 Y28.807 E22.76676
G1 X98.128 Y29.687 E22.95227
G1 X100.635 Y30.489 E23.13612
G1 X103.219 Y31.235 E23.32397
G1 X105.798 Y31.902 E23.51003
G1 X108.386 Y32.493 E23.69545
G1 X110.996 Y33.011 E23.8813
G1 X111.82 Y33.152 E23.93969
G1 X112.676 Y33.311 E24.0005
G1 X113.339 Y33.475 E24.04821
G1 X113.978 Y33.715 E24.09588
G1 X114.586 Y34.029 E24.14368
G1 X115.152 Y34.411 E24.19137
G1 X115.67 Y34.856 E24.23907
G1 X116.132 Y35.359 E24.28677
G1 X116.533 Y35.913 E24.33454
G1 X116.866 Y36.509 E24.38223
G1 X117.127 Y37.141 E24.42999
G1 X117.313 Y37.798 E24.47768
G1 X117.42 Y38.473 E24.52541
G1 X117.458 Y39.374 E24.5884
G1 X117.458 Y43.93 E24.90662
G1 X117.495 Y46.569 E25.09096
G1 X117.61 Y49.276 E25.28021
G1 X117.795 Y51.879 E25.46248
G1 X118.062 Y54.571 E25.65142
G1 X118.401 Y57.218 E25.83782
G1 X118.808 Y59.811 E26.02115
G1 X119.302 Y62.469 E26.20998
G1 X119.86 Y65.062 E26.39523
G1 X120.481 Y67.599 E26.57767
G1 X121.202 Y70.216 E26.76726
G1 X121.973 Y72.736 E26.95133
G1 X122.924 Y75.549 E27.15873
G1 X123.117 Y76.273 E27.21107
G1 X123.307 Y77.222 E27.27867
G1 X123.396 Y77.826 E27.32131
G1 X123.476 Y78.856 E27.39347
G1 X123.459 Y79.974 E27.47156
G1 X123.408 Y80.668 E27.52017
G1 X123.323 Y81.298 E27.56457
G1 X123.225 Y81.834 E27.60263
G1 X123.044 Y82.616 E27.65869
G1 X122.813 Y83.425 E27.71746
G1 X122.194 Y85.305 E27.8557
G1 X121.435 Y87.837 E28.04033
G1 X120.735 Y90.439 E28.22853
G1 X120.12 Y93.011 E28.41324
G1 X119.573 Y95.635 E28.60045
G1 X119.1 Y98.257 E28.78655
G1 X118.589 Y101.716 E29.03077
G1 X118.358 Y102.758 E29.10532
G1 X118.232 Y103.253 E29.14099
G1 X117.913 Y104.173 E29.209
G1 X117.522 Y105.053 E29.27626
G1 X117.127 Y105.772 E29.33356
G1 X116.719 Y106.42 E29.38705
G1 X116.426 Y106.857 E29.42379
G1 X115.795 Y107.634 E29.49371
G1 X115.364 Y108.08 E29.53703
G1 X114.844 Y108.59 E29.5879
G1 X114.371 Y109.004 E29.6318
G1 X113.915 Y109.354 E29.67195
G1 X113.414 Y109.71 E29.71488
G1 X112.745 Y110.138 E29.77035
G1 X111.987 Y110.523 E29.82973
G1 X111.324 Y110.814 E29.88031
G1 X110.599 Y111.102 E29.93479
G1 X108.162 Y111.961 E30.11527
G1 X105.718 Y112.899 E30.29812
G1 X103.237 Y113.933 E30.48586
G1 X100.817 Y115.022 E30.67121
G1 X98.413 Y116.188 E30.85783
G1 X96.026 Y117.43 E31.04577
G1 X94.736 Y118.136 E31.14848
G1 X94.119 Y118.429 E31.19619
G1 X93.406 Y118.676 E31.24889
G1 X92.58 Y118.878 E31.30829
G1 X91.908 Y119.002 E31.35602
G1 X91.275 Y119.045 E31.40033
G1 X90.502 Y119.056 E31.45433
G1 X88.114 Y119.055 E31.62112
G1 X87.41 Y119.045 E31.6703
G1 X86.729 Y118.996 E31.71799
G1 X86.058 Y118.867 E31.76571
G1 X85.292 Y118.624 E31.82184
G1 X84.235 Y118.128 E31.90339
G1 X83.047 Y117.551 E31.99564
G1 X80.647 Y116.469 E32.17952
G1 X78.153 Y115.428 E32.36828
G1 X75.702 Y114.485 E32.55171
G1 X73.199 Y113.602 E32.73709
G1 X71.7 Y113.132 E32.84682
G1 X71.463 Y113.042 E32.86452
G1 X70.39 Y112.698 E32.94323
G1 X69.753 Y112.451 E32.99095
G1 X69.074 Y112.106 E33.04414
G1 X68.334 Y111.63 E33.1056
G1 X67.807 Y111.195 E33.15333
G1 X67.335 Y110.701 E33.20105
G1 X66.819 Y110.022 E33.26062
G1 X66.374 Y109.269 E33.32171
G1 X66.059 Y108.557 E33.37609
G1 X65.674 Y107.301 E33.46784
G1 X65.537 Y106.827 E33.50231
G1 X64.734 Y104.318 E33.68631
G1 X63.836 Y101.76 E33.87566
G1 X62.897 Y99.31 E34.05892
G1 X61.869 Y96.84 E34.24579
G1 X60.769 Y94.393 E34.43318
G1 X59.613 Y92.006 E34.61842
G1 X58.394 Y89.659 E34.80315
G1 X57.093 Y87.316 E34.99033
G1 X56.621 Y86.504 E35.05593
G1 X56.313 Y85.894 E35.10366
G1 X56.079 Y85.252 E35.15139
G1 X55.921 Y84.587 E35.19913
G1 X55.836 Y83.782 E35.25567
G1 X55.82 Y83.239 E35.29361
G1 X55.821 Y51.423 E37.51584
G1 X55.833 Y50.714 E37.56537
G1 X55.884 Y50.033 E37.61307
G1 X56.087 Y49.107 E37.67928
G1 X56.418 Y48.025 E37.75831
G1 X56.642 Y47.326 E37.80958
G1 X57.388 Y44.757 E37.99643
G1 X58.057 Y42.18 E38.18239
G1 X58.653 Y39.582 E38.36856
G1 X59.18 Y36.947 E38.55625
M204 S3000
M205 X10 Y10
G1 F2400 E32.55625
G0 F3000 X58.605 Y42.293
M204 S1800
M205 X8 Y8
G1 F2400 E38.55625
G1 X59.198 Y39.715 E38.74102
G1 X59.732 Y37.042 E38.93141
G1 X60.182 Y34.408 E39.11805
G1 X60.556 Y31.778 E39.30359
G1 X60.856 Y29.127 E39.48993
G1 X60.951 Y28.163 E39.55759
G1 X61.054 Y27.522 E39.60294
G1 X61.236 Y26.898 E39.64834
G1 X61.493 Y26.301 E39.69374
G1 X61.821 Y25.741 E39.73907
G1 X62.215 Y25.224 E39.78447
G1 X62.67 Y24.761 E39.82981
G1 X63.179 Y24.356 E39.87524
G1 X63.733 Y24.017 E39.9206
G1 X64.325 Y23.749 E39.96599
G1 X64.945 Y23.556 E40.01135
G1 X65.584 Y23.44 E40.05671
G1 X66.206 Y23.394 E40.10027
G1 X73.366 Y23.395 E40.60037
G1 X77.109 Y23.375 E40.86181
G1 X80.326 Y23.368 E41.08651
G1 X81.094 Y23.379 E41.14015
G1 X81.741 Y23.428 E41.18547
G1 X82.378 Y23.557 E41.23087
G1 X82.994 Y23.763 E41.27624
G1 X83.465 Y23.973 E41.31226
G1 X85.603 Y25.084 E41.48055
G1 X87.979 Y26.234 E41.66492
G1 X90.445 Y27.343 E41.85377
G1 X92.917 Y28.372 E42.0408
G1 X95.413 Y29.327 E42.22746
G1 X97.949 Y30.218 E42.4152
G1 X100.495 Y31.032 E42.6019
G1 X103.068 Y31.775 E42.78895
G1 X105.669 Y32.447 E42.97659
G1 X108.255 Y33.038 E43.16187
G1 X110.938 Y33.57 E43.35292
G1 X111.717 Y33.703 E43.40811
G1 X112.573 Y33.862 E43.46892
G1 X113.203 Y34.019 E43.51427
G1 X113.809 Y34.253 E43.55965
G1 X114.382 Y34.56 E43.60505
G1 X114.913 Y34.934 E43.65041
G1 X115.394 Y35.371 E43.69581
G1 X115.817 Y35.864 E43.74118
G1 X116.177 Y36.405 E43.78657
G1 X116.468 Y36.986 E43.83195
G1 X116.685 Y37.598 E43.87731
G1 X116.825 Y38.232 E43.92266
G1 X116.898 Y39.024 E43.97821
G1 X116.898 Y43.93 E44.32087
G1 X116.936 Y46.601 E44.50745
G1 X117.049 Y49.267 E44.69383
G1 X117.241 Y51.974 E44.88338
G1 X117.504 Y54.627 E45.06959
G1 X117.842 Y57.267 E45.25549
G1 X118.26 Y59.931 E45.44384
G1 X118.748 Y62.552 E45.63005
G1 X119.318 Y65.203 E45.81944
G1 X119.938 Y67.736 E46.00159
G1 X120.661 Y70.361 E46.19176
G1 X121.449 Y72.934 E46.37971
G1 X122.393 Y75.728 E46.5857
G1 X122.568 Y76.382 E46.63299
G1 X122.758 Y77.331 E46.70059
G1 X122.838 Y77.878 E46.7392
G1 X122.915 Y78.868 E46.80856
G1 X122.899 Y79.966 E46.88526
G1 X122.853 Y80.593 E46.92917
G1 X122.735 Y81.464 E46.99056
G1 X122.498 Y82.49 E47.06411
G1 X122.281 Y83.25 E47.11931
G1 X121.664 Y85.124 E47.25712
G1 X120.89 Y87.707 E47.44546
G1 X120.19 Y90.307 E47.63352
G1 X119.58 Y92.862 E47.817
G1 X119.015 Y95.566 E48.00994
G1 X118.552 Y98.137 E48.1924
G1 X118.038 Y101.614 E48.4379
G1 X117.815 Y102.619 E48.5098
G1 X117.689 Y103.114 E48.54548
G1 X117.401 Y103.947 E48.60704
G1 X117.195 Y104.413 E48.64262
G1 X116.956 Y104.921 E48.68184
G1 X116.653 Y105.473 E48.72582
G1 X116.245 Y106.121 E48.7793
G1 X115.963 Y106.542 E48.8147
G1 X115.392 Y107.245 E48.87795
G1 X114.961 Y107.691 E48.92127
G1 X114.453 Y108.189 E48.97096
G1 X114.025 Y108.563 E49.01066
G1 X113.59 Y108.897 E49.04897
G1 X113.089 Y109.253 E49.09189
G1 X112.282 Y109.746 E49.15795
G1 X111.762 Y110.01 E49.19868
G1 X111.099 Y110.301 E49.24925
G1 X110.413 Y110.573 E49.3008
G1 X108.028 Y111.414 E49.47743
G1 X105.467 Y112.397 E49.66903
G1 X103.012 Y113.42 E49.8548
G1 X100.593 Y114.509 E50.04009
G1 X98.146 Y115.695 E50.23002
G1 X95.786 Y116.923 E50.41583
G1 X94.467 Y117.645 E50.52086
G1 X93.879 Y117.921 E50.56623
G1 X93.251 Y118.137 E50.61262
G1 X92.447 Y118.334 E50.67043
G1 X91.808 Y118.45 E50.71579
G1 X91.267 Y118.485 E50.75366
G1 X90.502 Y118.496 E50.8071
G1 X88.122 Y118.495 E50.97333
G1 X87.418 Y118.485 E51.02251
G1 X86.77 Y118.436 E51.0679
G1 X86.133 Y118.308 E51.11328
G1 X85.249 Y117.985 E51.17902
G1 X84.48 Y117.624 E51.23835
G1 X83.301 Y117.052 E51.32988
G1 X80.869 Y115.954 E51.51626
G1 X78.349 Y114.903 E51.70696
G1 X75.912 Y113.965 E51.88935
G1 X73.384 Y113.074 E52.07657
G1 X71.867 Y112.598 E52.18762
G1 X71.641 Y112.511 E52.20454
G1 X70.561 Y112.165 E52.28375
G1 X69.956 Y111.928 E52.32913
G1 X69.184 Y111.512 E52.39038
G1 X68.639 Y111.159 E52.43573
G1 X68.142 Y110.741 E52.48109
G1 X67.7 Y110.265 E52.52646
G1 X67.272 Y109.689 E52.57659
G1 X66.858 Y108.985 E52.63363
G1 X66.519 Y108.144 E52.69696
G1 X66.074 Y106.668 E52.80464
G1 X65.254 Y104.106 E52.99253
G1 X64.372 Y101.593 E53.17855
G1 X63.413 Y99.09 E53.36577
G1 X62.382 Y96.616 E53.55297
G1 X61.283 Y94.17 E53.74027
G1 X60.114 Y91.754 E53.92773
G1 X58.88 Y89.38 E54.11461
G1 X57.578 Y87.035 E54.30195
G1 X57.106 Y86.223 E54.36755
G1 X56.815 Y85.642 E54.41294
G1 X56.597 Y85.03 E54.45832
G1 X56.457 Y84.395 E54.50373
G1 X56.395 Y83.762 E54.54816
G1 X56.38 Y83.239 E54.5847
G1 X56.381 Y51.433 E56.80623
G1 X56.393 Y50.724 E56.85576
G1 X56.444 Y50.076 E56.90116
G1 X56.622 Y49.27 E56.95881
G1 X56.951 Y48.196 E57.03727
G1 X57.182 Y47.476 E57.09008
G1 X57.924 Y44.918 E57.27612
G1 X58.605 Y42.293 E57.46553
M204 S3000
M205 X10 Y10
G1 F2400 E51.46553
G0 F3000 X61.007 Y84.222
G0 X94.406 Y89.657
G0 X94.406 Y94.725
G0 X93.441 Y106.725
G0 X92.868 Y107.664
G0 X87.565 Y108.214
M204 S1800
M205 X8 Y8
;TYPE:SUPPORT
G1 F2400 E57.46553
G1 F1680 X87.622 Y108.356 E57.47316
G1 X87.63 Y113.076 E57.70865
G1 X91.17 Y113.076 E57.88526
G1 X91.884 Y112.891 E57.92206
G1 X92.427 Y112.576 E57.95338
G1 X92.845 Y112.161 E57.98276
G1 X93.164 Y111.62 E58.01409
G1 X93.342 Y110.931 E58.0496
G1 X93.342 Y108.599 E58.16594
G1 X93.388 Y108.205 E58.18573
G1 X93.388 Y107.62 E58.21492
G1 X93.073 Y108.023 E58.24044
G1 X92.701 Y108.212 E58.26125
G1 X87.565 Y108.214 E58.51749
M204 S3000
M205 X10 Y10
G0 F3000 X88 Y108.352
M204 S1800
M205 X8 Y8
G1 F1200 X88 Y112.936 E58.83767
M204 S3000
M205 X10 Y10
G1 F2400 E52.83767
G0 F3000 X91.67 Y108.351
M204 S1800
M205 X8 Y8
G1 F2400 E58.83767
G1 F1200 X93.202 Y109.236 E58.96124
M204 S3000
M205 X10 Y10
G1 F2400 E52.96124
G1 F600 Z0.375
G0 F3000 X103.469 Y99.929 Z0.375
M204 S1800
M205 X8 Y8
G1 F600 Z0.3
G1 F2400 E58.96124
G1 F1680 X103.563 Y100.549 E58.99253
